X:1
T:Claude Debussy
T:Doctor Gradus ad Parnassum
%%score { ( 1 3 5 ) | ( 2 4 ) }
L:1/8
Q:1/4=112
M:4/4
K:C
V:1 treble nm="PIANO"
V:3 treble 
V:5 treble 
V:2 bass 
V:4 bass 
V:1
!p!"^Modérément animé" z/"^égal et sans sécheresse" (G,/C/D/ E/G,/C/E/ D/F,/C/D/ F/A,/B,/F/ | %1
 E/G,/C/E/ G/B,/C/G/ F/A,/C/F/ A/B,/F/A/ | G/C/E/G/) .c z .d z .c z | .B z .A z .G z .F z | %4
 E2 D2!<(! G2!<)!!<(! A2!<)! |!p! E2[K:bass] D2 C2 B,2 | %6
!pp![I:staff +1] (F,,/!<(!C,/D,/E,/[I:staff -1]F,/A,/C/!<)!D/[I:staff +1] E/!>(![I:staff -1]D/C/A,/F,/[I:staff +1]E,/D,/!>)!C,/) | %7
!pp! (F,,/C,/D,/E,/[I:staff -1]F,/A,/C/D/[I:staff +1] E/[I:staff -1]D/C/A,/F,/[I:staff +1]E,/D,/C,/) | %8
!pp! (F,,/!<(!C,/D,/E,/[I:staff -1]F,/_A,/C/D/!<)![I:staff +1] E/!>(![I:staff -1]D/C/A,/F,/[I:staff +1]E,/D,/!>)!C,/) | %9
!pp! (F,,/C,/D,/E,/[I:staff -1]F,/_A,/C/D/[I:staff +1] E/[I:staff -1]D/C/_B,/F,/[I:staff +1]E,/D,/C,/) | %10
 (E,,/=B,,/[I:staff -1]E,/"^cresc."^G,/[I:staff +1] B,,/E,/[I:staff -1]G,/B,/[I:staff +1] E,/^G,/[I:staff -1]B,/E/[I:staff +1] G,/B,/[I:staff -1][K:treble]E/^G/) | %11
 z8 | %12
[I:staff +1] (E/[I:staff -1]A/F/D/[I:staff +1] E/[I:staff -1]F/D/B,/[I:staff +1] E/[I:staff -1]A/F/D/!<(![I:staff +1] E/[I:staff -1]F/D/B,/!<)! | %13
[I:staff +1] G/!>(![I:staff -1]c/A/F/[I:staff +1] E/[I:staff -1]A/F/D/[I:staff +1] C/[I:staff -1]F/D/!>)!B,/[I:staff +1] A,/[I:staff -1][K:bass]D/B,/G,/) | %14
[K:treble][I:staff +1] (E/[I:staff -1]A/F/D/[I:staff +1] E/[I:staff -1]F/D/B,/[I:staff +1] E/[I:staff -1]A/F/!<(!D/[I:staff +1] E/[I:staff -1]F/D/B,/!<)! | %15
[I:staff +1] G/!>(![I:staff -1]c/A/F/[I:staff +1] E/[I:staff -1]A/F/D/[I:staff +1] C/[I:staff -1]F/D/B,/[I:staff +1] A,/!>)![I:staff -1][K:bass]D/B,/G,/) | %16
[I:staff +1] (F,/[I:staff -1]B,/^G,/E,/[I:staff +1] =G,/!>(![I:staff -1]^C/^A,/!>)!^F,/[I:staff +1] =F,/[I:staff -1]B,/^G,/E,/[I:staff +1] =G,/!>(![I:staff -1]C/A,/^F,/)!>)! | %17
[I:staff +1] (F,/[I:staff -1]B,/^G,/E,/[I:staff +1] F,/[I:staff -1]B,/G,/E,/[I:staff +1] F,/[I:staff -1]B,/G,/E,/[I:staff +1] F,/[I:staff -1]B,/G,/E,/) | %18
[I:staff +1] (E,/[I:staff -1]A,/F,/D,/[I:staff +1] G,/!>(![I:staff -1]C/_A,/F,/!>)![I:staff +1] E,/[I:staff -1]=A,/F,/D,/[I:staff +1] G,/!>(![I:staff -1]C/_A,/!>)!F,/) | %19
[I:staff +1] (E,/[I:staff -1]=A,/F,/D,/[I:staff +1] E,/[I:staff -1]A,/F,/D,/[I:staff +1] E,/[I:staff -1]A,/F,/D,/[I:staff +1] E,/[I:staff -1]A,/F,/D,/) | %20
[Q:1/4=96]"^Un peu retenu"[I:staff +1] (E,/[I:staff -1]B,/_A,/D,/[I:staff +1] E,/[I:staff -1]B,/A,/D,/[I:staff +1] E,/[I:staff -1]B,/A,/D,/[I:staff +1] E,/[I:staff -1]B,/A,/D,/) | %21
[K:treble][Q:1/4=112]"^a Tempo" z/ (G,/C/D/ E/G,/C/E/ D/F,/C/D/ F/A,/B,/F/ | %22
 E/G,/C/E/ G/B,/C/G/ ^F/A,/C/F/ A/B,/F/A/) | x2"^m.g." !tenuto!e x x2 !tenuto!^f x | %24
 x2 !tenuto!e x x2 !tenuto!^f x | x2 !tenuto!^f2 x2 !tenuto!f2 | x2"^m.g. expressif" .g2 .^f2 .e2 | %27
 z2!<(! (de!<)! ^f4) | z2!<(! (de!<)! ^f4) | z2!>(! (.d2 .e2 .c2)!>)! | %30
"^dim." (d/_B/A/G/ F/E/D/C/)[K:bass] (D/_B,/A,/G,/[I:staff +1] F,/E,/D,/C,/ | %31
[Q:1/4=80]"^Retenu"[I:staff -1] z2!>(! D2 E2 C2!>)! || %32
[K:Bb][Q:1/4=112]"^1° Tempo"!p! x4)[K:treble] z[K:treble] (FBc | (d2) z2[K:bass]!>(! C_G,B,!>)!C- | %34
"^piú"!p!!>(! [_G,B,CE]8-) | [G,B,CE]8!>)! ||[K:Ab][Q:1/4=130]"^Animez un peu" z E,A,B, CE,A,C | %37
 B,E,G,B, DE,G,D | z E,A,B, CE,A,C | B,E,G,B, DE,G,D | z!<(! (G,CD EG,CE | DG,B,D FG,B,!<)!F-) | %42
 F[Q:1/4=80]"^Retenu" G,C!>(!D EG,CE | F[K:treble] x175/2 DG,B,D FG,B,!>)! x || %44
[K:C][K:treble][Q:1/4=112]"^1° Tempo" z/!pp! (G,/C/D/ E/G,/C/E/ D/F,/C/D/ F/A,/B,/F/ | %45
 E/G,/C/E/ G/B,/!<(!C/G/ F/A,/C/F/ A/B,/F/!<)!A/ |!pp! G/C/E/G/) .c x .d x .c x x350 | %47
 .B x .A x .G x .F x | E2 D2 G2 A2 | E2[K:bass] D2 C2 B,2 | %50
[I:staff +1] (F,,/!<(!C,/D,/E,/[I:staff -1]F,/A,/C/D/[I:staff +1] E/!<)!!>(![I:staff -1]D/C/A,/F,/[I:staff +1]E,/D,/!>)!C,/) | %51
!pp! (F,,/C,/D,/E,/[I:staff -1]F,/A,/C/D/[I:staff +1] E/[I:staff -1]D/C/B,/A,/[I:staff +1]E,/D,/C,/) | %52
 (F,,/!<(!C,/D,/E,/[I:staff -1]F,/_A,/C/D/[I:staff +1] E/!<)!!>(![I:staff -1]D/C/A,/F,/[I:staff +1]E,/D,/C,/)!>)! | %53
!pp! (F,,/C,/D,/E,/[I:staff -1]F,/_A,/C/D/[I:staff +1] E/[I:staff -1]D/C/_B,/A,/[I:staff +1]E,/D,/C,/) | %54
 (E,,/C,/[I:staff -1]E,/_A,/[I:staff +1] C,/E,/"^cre    -                -      scen    -             -      do"[I:staff -1]A,/C/[I:staff +1] E,/_A,/[I:staff -1][K:treble]C/E/[I:staff +1] A,/C/[I:staff -1]E/_A/ | %55
[I:staff +1] _A,/C/[I:staff -1]E/_A/[I:staff +1] C/E/[I:staff -1]A/c/[I:staff +1] E/_A/[I:staff -1]c/e/[I:staff +1] A/c/[I:staff -1]e/_a/) | %56
[Q:1/4=130]"^En   animant   peu   à peu"!f![I:staff +1] (c/e/[I:staff -1]g/c'/)[I:staff +1] (c/e/[I:staff -1]g/c'/)[I:staff +1] (d/e/[I:staff -1]g/d'/)[I:staff +1] (c/e/[I:staff -1]g/c'/) | %57
[I:staff +1] (f/_a/[I:staff -1]c'/f'/)[I:staff +1] (_e/a/[I:staff -1]c'/_e'/)[I:staff +1] (d/e/[I:staff -1]_a/d'/)[I:staff +1] (c/e/[I:staff -1]a/c'/) | %58
[I:staff +1] (d/=e/[I:staff -1]g/d'/)[I:staff +1] (c/e/[I:staff -1]g/c'/)[I:staff +1] (B/c/[I:staff -1]g/c'/)[I:staff +1] (A/c/[I:staff -1]e/a/) | %59
[I:staff +1] (G/A/[I:staff -1]c/g/)!>(![I:staff +1] (F/A/[I:staff -1]c/f/)[I:staff +1] (!tenuto!E/F/[I:staff -1]_A/e/)[I:staff +1] (!tenuto!D/F/[I:staff -1]A/!>)!d/) | %60
[I:staff +1] (D/E/[I:staff -1]G/d/)!f![I:staff +1] (C/E/[I:staff -1]G/c/)[I:staff +1] (D/E/[I:staff -1]G/d/)[I:staff +1] (C/E/[I:staff -1]G/c/) | %61
[I:staff +1] (F/_A/[I:staff -1]c/f/)[I:staff +1] (_E/A/[I:staff -1]c/_e/)[I:staff +1] (D/E/[I:staff -1]_A/d/)[I:staff +1] (C/E/[I:staff -1]A/c/) | %62
[I:staff +1] (D/=E/[I:staff -1]G/d/)[I:staff +1] (C/E/[I:staff -1]G/c/)[I:staff +1] (B,/C/[I:staff -1]E/B/)[I:staff +1] (A,/C/[I:staff -1]E/A/) | %63
!>(![I:staff +1] (G,/A,/[I:staff -1]C/G/)[I:staff +1] (F,/A,/[I:staff -1]C/F/)[I:staff +1] (E,/F,/[I:staff -1]_A,/E/)[I:staff +1] (D,/!>)!F,/[I:staff -1]A,/D/) | %64
[K:bass][I:staff +1] (D,/!>(![I:staff -1]E,/G,/D/!>)![I:staff +1] C,/[I:staff -1]E,/G,/C/)[I:staff +1] ((D,/!<(![I:staff -1]F,/A,/!<)!D/[I:staff +1] C,/)[I:staff -1]F,/A,/C/) | %65
[K:treble][I:staff +1] (D/!>(![I:staff -1]E/G/!>)!d/[I:staff +1] C/[I:staff -1]E/G/c/)[I:staff +1] ((D/!<(![I:staff -1]F/A/!<)!d/[I:staff +1] C/)[I:staff -1]F/A/c/) | %66
 z/!f![Q:1/4=130]"^Très animé"!<(! (e/c/E/ z/!<)! e/B/E/ z/!f!!<(! e/c/E/ z/!<)! e/B/E/ | %67
 z/ e/c/!<(!E/ z/ g/_e/G/ z/ ^a/^f/^A/ z/ b/g/!<)!B/) | %68
!f! z/!<(! (e/c/E/ z/!<)! e/B/E/!f! z/!<(! e/c/E/ z/!<)! e/B/E/ | %69
 z/ e/c/E/ z/!<(! g/_e/G/ z/ ^a/^f/^A/ z/ b/g/!<)!B/) | %70
!f! z/ (e'/c'/e/ z/ e'/c'/e/) z/ (e/c/E/ z/ e/c/E/) | %71
[K:bass]!f!"^piú" z/!<(! (E/C/E,/ z/ E/C/E,/ z/ E/C/E,/ z/ E/C/!<)!E,/) | %72
!ff! (!^!!tenuto![C,E,]8- | [C,E,]4 !^!!tenuto![B,,D,]4 |!ff! .!^![C,E,]2) z2 z4 | %75
!ff! .!^!C,,2 z2 z4 |] %76
V:2
{/C,,} !tenuto!C,8- | C,8- | C,2 C6- | C4 x4 | (G,2 F,2 E,2 A,2) | (G,2 F,2 E,2 D,2) | x8 | x8 | %8
 x8 | x8 | x8 |!>(! !^!E8-!>)! |!p! .E z .E z .E z .E z | .G z .E z .C z .A, z | %14
!p! .E z .E z .E z .E z | .G z .E z .C z .A, z |!p! .F, z !tenuto!G, z!p! .F, z !tenuto!G, z | %17
 .=F, z .F, z .F, z .F, z |!p! .E, z !tenuto!G, z!p! .E, z !tenuto!G, z | %19
!p!"^piú" .E, z .E, z .E, z .E, z | .E, z .E, z .E, z .E, z |!p!{/.C,,} !tenuto!C,8- | %22
 (C,2 A,,2 D,2 B,,2) | !tenuto!E,8 | !tenuto!E,4 z4 | (B,4 ^A,4 | A,8) | (_B,8 | B,8 | C8 | G,8) | %31
 _B,,/A,,/G,,/F,,/ E,,2 D,,2 C,,2 ||[K:Bb] B,,,8- | B,,,8 | (B,,,4 E,,2 B,,,2- | %35
 B,,,2 E,,4 B,,,2) ||[K:Ab] A,,,8- | A,,,8[K:treble] |[K:bass] A,,,8-[K:treble] | %39
[K:bass] A,,,8[K:treble] |[K:bass] A,,,8- | A,,,8- | A,,,8- | x177/2 A,,,8 ||[K:C] G,,8- | G,,8- | %46
 ((C6 x344 G,,2 x6 | C2) x2 x4 | G,2 F,2 E,2 A,2 | G,2 F,2 E,2 D,2) | x8 | x8 | x8 | x8 | x8 | %55
 z4[K:treble] x4 | z2 !tenuto!c2 !tenuto!d2 !tenuto!c2 | %57
 !tenuto!f2 !tenuto!_e2 !tenuto!d2 !tenuto!c2 | !tenuto!d2 !tenuto!c2 !tenuto!B2 !tenuto!A2 | %59
 (!tenuto!G2 !tenuto!F2 E2 D2 | D2) (C2 D2 C2 | F2 _E2 D2 C2) | (D2 C2 B,2 A,2 | %63
[K:bass] G,2 F,2 E,2 D,2) | (D,2 C,2) !tenuto!F,,4 | (D2 C2) !tenuto!F,4 | %66
[K:treble] (G2 A[I:staff -1]B)[I:staff +1] (G2 A[I:staff -1]B) | %67
[I:staff +1] !tenuto![CG]2 !^![_E_B]2 !^![^F^c]2 !^![Gd]2 | %68
 (G2 A[I:staff -1]B)[I:staff +1] (G2 A[I:staff -1]B) | %69
[I:staff +1] !tenuto![CG]2 !^![_E_B]2 !^![^F^c]2 !^![Gd]2 | !^!g4 !^!G4 | %71
[K:bass] !^!G,2 !^!C,2 !^!G,,2 !^!C,,2 | (!^!!tenuto![F,,A,,]8- | [F,,A,,]8 | %74
 !tenuto!.!^![C,,G,,]2) z2 z4 | .!^!C,,,2 z2 z4 |] %76
V:3
 x8 | x8 | x2 (c/E/G/c/ d/E/G/d/ c/E/G/c/ | B/E/G/B/ A/E/G/A/ G/C/E/G/ F/)C/E/F/ | %4
 E/B,/C/E/ D/A,/C/D/ G/B,/E/G/ A/C/E/A/ | (E/A,/C/E/[K:bass] D/A,/C/D/ C/G,/A,/C/ B,/F,/G,/B,/) | %6
 x8 | x8 | x8 | x8 | x7[K:treble] x | x8 | x8 | x13/2[K:bass] x3/2 |[K:treble] x8 | %15
 x13/2[K:bass] x3/2 | x8 | x8 | x8 | x8 | x8 |[K:treble] x8 | x8 | %23
 (G/D/G/B/ e/B/G/D/[I:staff +1] ^C/[I:staff -1]E/G/c/ ^f/A/G/E/) | %24
[I:staff +1] (E,/[I:staff -1]D/G/B/ e/B/G/D/[I:staff +1] ^C/[I:staff -1]E/G/^A/ ^f/A/G/E/) | %25
[I:staff +1] (B,/[I:staff -1]E/G/d/ ^f/d/G/E/[I:staff +1] ^A,/[I:staff -1]E/G/^c/ f/c/G/E/) | %26
[I:staff +1] (=A,/[I:staff -1]E/G/=c/ g/c/G/E/ ^f/c/G/E/ e/c/G/E/) | %27
[I:staff +1] (_B,/[I:staff -1]E/G/c/ d/c/G/E/ ^f/c/G/E/- E/c/G/E/) | %28
[I:staff +1] (=B,/[I:staff -1]E/G/B/ d/B/G/E/ ^f/B/G/E/- E/B/G/E/) | %29
[I:staff +1] C/[I:staff -1]E/G/_B/ d/B/G/E/ e/B/G/E/ c/B/G/E/ | x4[K:bass] x4 | %31
 z2 D/_B,/G,/B,/ E/B,/G,/B,/ C/B,/G,/B,/ ||[K:Bb] z[K:treble]"^expressif" F,B,C D2[K:treble] z2 | %33
 x4[K:bass] x x3- | x8 | x8 ||[K:Ab] x8 | x8 | x8 | x8 | x8 | x8 | x8 | x[K:treble] x191/2 || %44
[K:C][K:treble] x8 | x8 | x2 (c/E/G/c/ d/E/G/d/ c/E/G/c/ x350 | %47
 B/E/G/B/ A/E/G/A/ G/C/E/G/ F/C/E/F/) | (E/A,/!<(!C/E/ D/A,/C/D/ G/_B,/E/G/ A/C/E/!<)!A/ | %49
 E/A,/!>(!C/E/[K:bass] D/A,/C/D/ C/G,/A,/C/ B,/F,/G,/B,/)!>)! | x8 | x8 | x8 | x8 | %54
 x5[K:treble] x3 | x8 | x8 | x8 | x8 | x8 | x8 | x8 | x8 | x8 |[K:bass] x8 |[K:treble] x8 | x8 | %67
 x8 | x8 | x8 | x8 |[K:bass] x8 | x8 | x8 | x8 | x8 |] %76
V:4
 x8 | x8 | x2 (C2 B,2 A,2 | B,2 C2 B,2 A,2) | x8 | x8 | !tenuto!F,,8 | !tenuto!F,,8 | %8
 !tenuto!F,,8 | !tenuto!F,,8 | x8 | x8 | x8 | x8 | x8 | x8 | x8 | x8 | x8 | x8 | x8 | x8 | x8 | %23
 x4 .^C/ x3/2 x2 | x4 .^C/ x3/2 x2 | x8 | x8 | x8 | x8 | x8 | x8 | x8 ||[K:Bb] x8 | z F,B,D x4 | %34
 x8 | x8 ||[K:Ab] x8 | z2[K:treble]"^expressif"!>(! (!tenuto![GB]4!>)! [FA]2) | %38
[K:bass] z4[K:treble] [EG]4 |[K:bass] z2[K:treble]"^expressif"!>(! (!tenuto![GB]4!>)! [FA]2) | %40
[K:bass] x8 | x8 | (!tenuto!A8 | x177/2 E,4 A,,4) ||[K:C] G,,,8- | G,,,8- | x350 G,,,2 C2 B,2 A,2 | %47
 B,2 C2 B,2 A,2 | x8 | x8 | F,,8 | F,,8 | F,,8 | F,,8 | x8 | x4[K:treble] x4 | x8 | x8 | x8 | x8 | %60
 x8 | x8 | x8 |[K:bass] x8 | x8 | x8 |[K:treble] !tenuto!C4 !tenuto!C4 | x8 | %68
 !tenuto!C4 !tenuto!C4 | x8 | (g2 c2) (G2 C2) |[K:bass] x8 | x8 | x8 | x8 | x8 |] %76
V:5
 x8 | x8 | x8 | x8 | x8 | x2[K:bass] x6 | x8 | x8 | x8 | x8 | x7[K:treble] x | x8 | x8 | %13
 x13/2[K:bass] x3/2 |[K:treble] x8 | x13/2[K:bass] x3/2 | x8 | x8 | x8 | x8 | x8 |[K:treble] x8 | %22
 x8 | x8 | x8 | x8 | x8 | x8 | x8 | x8 | x4[K:bass] x4 | x8 || %32
[K:Bb] x/[K:treble] x9/2[K:treble] x3 | x4[K:bass] x2 B,2- | B,8 | x8 ||[K:Ab] x8 | x8 | x8 | x8 | %40
 x8 | x8 | x8 | x[K:treble] x191/2 ||[K:C][K:treble] x8 | x8 | x358 | x8 | x8 | x2[K:bass] x6 | %50
 x8 | x8 | x8 | x8 | x5[K:treble] x3 | x8 | x8 | x8 | x8 | x8 | x8 | x8 | x8 | x8 |[K:bass] x8 | %65
[K:treble] x8 | x8 | x8 | x8 | x8 | x8 |[K:bass] x8 | x8 | x8 | x8 | x8 |] %76

